X: 24770
T: Maeve's
R: reel
M: 4/4
K: Gmajor
|:A/B/c|dgeB dBAG|B/d/B AG GEDB,|~G,2B,D GA B/c/d|g2fg ed B/c/d|
~g3a bgeg|gedB AG E/F/G|DEGA Bgfg|ecAF G2:|
|:A/B/c|dggf ~g3a|bg~g2 edBG|DEGA ~B3 d|e/f/g fged B/c/d|
~g3a bged|gedB AE ~E2|DEGA Bgfg|ecAF G2:|

